icons/stats.svg

<svg width="24" height="24" viewBox="0 0 24 24" fill="none" xmlns="http://www.w3.org/2000/svg">
<path d="M5 20C5 20.5523 5.44772 21 6 21C6.55228 21 7 20.5523 7 20H5ZM7 10.6667C7 10.1144 6.55228 9.66667 6 9.66667C5.44772 9.66667 5 10.1144 5 10.6667H7ZM11.2609 20C11.2609 20.5523 11.7086 21 12.2609 21C12.8132 21 13.2609 20.5523 13.2609 20H11.2609ZM13.2609 4C13.2609 3.44772 12.8132 3 12.2609 3C11.7086 3 11.2609 3.44772 11.2609 4H13.2609ZM17.5 20C17.5 20.5523 17.9477 21 18.5 21C19.0523 21 19.5 20.5523 19.5 20H17.5ZM19.5 7.29412C19.5 6.74183 19.0523 6.29412 18.5 6.29412C17.9477 6.29412 17.5 6.74183 17.5 7.29412H19.5ZM7 20V10.6667H5V20H7ZM13.2609 20V4H11.2609V20H13.2609ZM19.5 20V7.29412H17.5V20H19.5Z" fill="#333333"/>
</svg>

<svg xmlns="http://www.w3.org/2000/svg" width="24" height="24" fill="none" viewBox="0 0 24 24">
  <path fill="#333" d="M5 20a1 1 0 102 0H5zm2-9.333a1 1 0 10-2 0h2zM11.26 20a1 1 0 102 0h-2zm2-16a1 1 0 10-2 0h2zm4.24 16a1 1 0 102 0h-2zm2-12.706a1 1 0 10-2 0h2zM7 20v-9.333H5V20h2zm6.26 0V4h-2v16h2zm6.24 0V7.294h-2V20h2z"/>
</svg>
